;FLAVOR:Marlin
;TIME:567
;Filament used: 0.122686m
;Layer height: 0.06
;Generated with Cura_SteamEngine 3.2.1
M82 ;absolute extrusion mode
; info: M303 E0 S200 C8 ; Pid auto-tune

M140 S60; Start heating up the base
G28 ; Home to top 3 endstops
; Autolevel and adjust first layer
; Adjust this value to fit your own printer!  (positive is thicker)
; This default value is intentionally very high to accommodate the
; variety of print heads used with this printer.  Many of you will
; need tiny values like Z0 or Z0.1.  Use feeler gauges to dial this
; in as accurately as possible.
;G29 Z10

; Squirt and wipe ;
;M109 S220 ; Wait for the temp to hit 220
;G00 X125 Y-60 Z0.1 ;
;G92 E0 ;
;G01 E25 F100 ; Extrude a little bit to replace oozage from auto levelling
;G01 X90 Y-50 F6000 ;
;G01 Z5 ;

; Set the extruder to the requested print temperature
M109 S200
;LAYER_COUNT:63
;LAYER:0
M107
G0 F1500 X4.776 Y10.816 Z0.3
;TYPE:SKIRT
G1 X-4.851 Y10.807 E0.42026
G1 X-5.644 Y10.766 E0.45492
G1 X-6.428 Y10.646 E0.48954
G1 X-7.196 Y10.447 E0.52418
G1 X-8.142 Y10.083 E0.56843
G1 X-8.322 Y10 E0.57708
G1 X-9.024 Y9.632 E0.61168
G1 X-9.687 Y9.195 E0.64634
G1 X-10.302 Y8.694 E0.68097
G1 X-10.863 Y8.133 E0.7156
G1 X-11.399 Y7.473 E0.75272
G1 X-11.539 Y7.28 E0.76313
G1 X-11.971 Y6.615 E0.79775
G1 X-12.335 Y5.91 E0.83238
G1 X-12.626 Y5.172 E0.86701
G1 X-12.842 Y4.408 E0.90167
G1 X-12.979 Y3.627 E0.93629
G1 X-13.039 Y2.635 E0.97967
G1 X-13.025 Y-2.711 E1.21304
G1 X-12.983 Y-3.503 E1.24767
G1 X-12.861 Y-4.287 E1.2823
G1 X-12.661 Y-5.055 E1.31695
G1 X-12.385 Y-5.799 E1.35159
G1 X-12.036 Y-6.511 E1.3862
G1 X-11.616 Y-7.185 E1.42087
G1 X-11.252 Y-7.669 E1.44731
G1 X-11.119 Y-7.832 E1.45649
G1 X-10.587 Y-8.42 E1.49111
G1 X-9.998 Y-8.953 E1.52579
G1 X-9.359 Y-9.423 E1.56041
G1 X-8.676 Y-9.826 E1.59503
G1 X-7.782 Y-10.227 E1.6378
G1 X-7.55 Y-10.314 E1.64862
G1 X-6.794 Y-10.554 E1.68325
G1 X-6.018 Y-10.718 E1.71787
G1 X-5.229 Y-10.802 E1.75251
G1 X-4.779 Y-10.815 E1.77216
G1 X4.849 Y-10.808 E2.19246
G1 X5.641 Y-10.767 E2.22708
G1 X6.425 Y-10.647 E2.2617
G1 X7.194 Y-10.449 E2.29637
G1 X8.158 Y-10.076 E2.34149
G1 X8.339 Y-9.992 E2.3502
G1 X9.041 Y-9.622 E2.38484
G1 X9.702 Y-9.184 E2.41946
G1 X10.316 Y-8.681 E2.45411
G1 X10.876 Y-8.119 E2.48874
G1 X11.417 Y-7.448 E2.52637
G1 X11.558 Y-7.252 E2.53691
G1 X11.988 Y-6.585 E2.57155
G1 X12.349 Y-5.879 E2.60617
G1 X12.637 Y-5.139 E2.64083
G1 X12.849 Y-4.375 E2.67544
G1 X12.984 Y-3.593 E2.71009
G1 X13.04 Y-2.629 E2.75224
G1 X13.024 Y2.712 E2.9854
G1 X12.982 Y3.504 E3.02002
G1 X12.86 Y4.288 E3.05465
G1 X12.66 Y5.056 E3.0893
G1 X12.383 Y5.8 E3.12396
G1 X12.033 Y6.512 E3.15859
G1 X11.614 Y7.185 E3.1932
G1 X11.237 Y7.683 E3.22046
G1 X11.1 Y7.85 E3.22989
G1 X10.567 Y8.437 E3.26451
G1 X9.977 Y8.968 E3.29916
G1 X9.337 Y9.436 E3.33377
G1 X8.652 Y9.838 E3.36844
G1 X7.781 Y10.227 E3.41008
G1 X7.552 Y10.313 E3.42076
G1 X6.796 Y10.554 E3.4554
G1 X6.019 Y10.718 E3.49007
G1 X5.23 Y10.803 E3.52471
G1 X4.776 Y10.816 E3.54453
G0 X4.776 Y10.466
G1 X-4.851 Y10.457 E3.96479
G1 X-5.626 Y10.416 E3.99867
G1 X-6.392 Y10.296 E4.03252
G1 X-7.142 Y10.098 E4.06638
G1 X-7.995 Y9.766 E4.10634
G1 X-8.175 Y9.683 E4.11499
G1 X-8.862 Y9.322 E4.14887
G1 X-9.508 Y8.892 E4.18274
G1 X-10.106 Y8.399 E4.21658
G1 X-10.65 Y7.846 E4.25044
G1 X-11.115 Y7.267 E4.28286
G1 X-11.255 Y7.074 E4.29327
G1 X-11.678 Y6.424 E4.32712
G1 X-12.031 Y5.733 E4.36099
G1 X-12.311 Y5.01 E4.39484
G1 X-12.516 Y4.262 E4.4287
G1 X-12.642 Y3.497 E4.46254
G1 X-12.689 Y2.636 E4.50018
G1 X-12.675 Y-2.71 E4.73356
G1 X-12.633 Y-3.484 E4.7674
G1 X-12.511 Y-4.25 E4.80126
G1 X-12.312 Y-5 E4.83513
G1 X-12.036 Y-5.725 E4.869
G1 X-11.687 Y-6.417 E4.90283
G1 X-11.269 Y-7.07 E4.93668
G1 X-10.98 Y-7.447 E4.95741
G1 X-10.847 Y-7.61 E4.9666
G1 X-10.327 Y-8.185 E5.00044
G1 X-9.75 Y-8.703 E5.03429
G1 X-9.122 Y-9.16 E5.06819
G1 X-8.451 Y-9.549 E5.10205
G1 X-7.659 Y-9.899 E5.13985
G1 X-7.427 Y-9.986 E5.15067
G1 X-6.688 Y-10.22 E5.18451
G1 X-5.928 Y-10.378 E5.21839
G1 X-4.78 Y-10.465 E5.26865
G1 X4.848 Y-10.458 E5.68895
G1 X5.623 Y-10.417 E5.72283
G1 X6.389 Y-10.297 E5.75668
G1 X7.139 Y-10.099 E5.79054
G1 X8.011 Y-9.759 E5.8314
G1 X8.192 Y-9.675 E5.84011
G1 X8.878 Y-9.312 E5.87399
G1 X9.522 Y-8.881 E5.90782
G1 X10.119 Y-8.386 E5.94167
G1 X10.662 Y-7.832 E5.97553
G1 X11.133 Y-7.243 E6.00846
G1 X11.274 Y-7.047 E6.019
G1 X11.693 Y-6.395 E6.05283
G1 X12.044 Y-5.703 E6.0867
G1 X12.321 Y-4.979 E6.12054
G1 X12.523 Y-4.23 E6.15441
G1 X12.646 Y-3.464 E6.18827
G1 X12.69 Y-2.63 E6.22473
G1 X12.674 Y2.711 E6.45789
G1 X12.632 Y3.485 E6.49173
G1 X12.51 Y4.251 E6.52559
G1 X12.31 Y5 E6.55943
G1 X12.034 Y5.725 E6.59329
G1 X11.685 Y6.418 E6.62717
G1 X11.266 Y7.071 E6.66104
G1 X10.967 Y7.461 E6.68249
G1 X10.83 Y7.628 E6.69192
G1 X10.308 Y8.201 E6.72576
G1 X9.729 Y8.718 E6.75964
G1 X9.101 Y9.172 E6.79347
G1 X8.429 Y9.56 E6.82734
G1 X7.658 Y9.9 E6.86413
G1 X7.429 Y9.986 E6.87481
G1 X6.689 Y10.221 E6.9087
G1 X5.93 Y10.378 E6.94253
G1 X4.776 Y10.466 E6.99306
G0 X4.776 Y10.116
G1 X-4.851 Y10.107 E7.41331
G1 X-5.607 Y10.066 E7.44636
G1 X-6.355 Y9.946 E7.47944
G1 X-7.086 Y9.748 E7.5125
G1 X-7.848 Y9.448 E7.54825
G1 X-8.028 Y9.365 E7.5569
G1 X-8.699 Y9.012 E7.59
G1 X-9.328 Y8.59 E7.62306
G1 X-9.909 Y8.104 E7.65613
G1 X-10.436 Y7.56 E7.68919
G1 X-10.832 Y7.062 E7.71697
G1 X-10.972 Y6.869 E7.72738
G1 X-11.384 Y6.233 E7.76046
G1 X-11.726 Y5.558 E7.79349
G1 X-11.995 Y4.85 E7.82655
G1 X-12.189 Y4.118 E7.85961
G1 X-12.303 Y3.369 E7.89268
G1 X-12.339 Y2.637 E7.92468
G1 X-12.325 Y-2.709 E8.15805
G1 X-12.283 Y-3.465 E8.1911
G1 X-12.162 Y-4.213 E8.22418
G1 X-11.962 Y-4.943 E8.25722
G1 X-11.687 Y-5.649 E8.2903
G1 X-11.338 Y-6.321 E8.32335
G1 X-10.709 Y-7.226 E8.37147
G1 X-10.576 Y-7.389 E8.38065
G1 X-10.067 Y-7.95 E8.41372
G1 X-9.502 Y-8.454 E8.44677
G1 X-8.886 Y-8.895 E8.47984
G1 X-8.228 Y-9.269 E8.51288
G1 X-7.536 Y-9.571 E8.54584
G1 X-7.304 Y-9.658 E8.55666
G1 X-6.582 Y-9.886 E8.58971
G1 X-5.84 Y-10.037 E8.62276
G1 X-4.78 Y-10.115 E8.66916
G1 X4.848 Y-10.108 E9.08946
G1 X5.604 Y-10.067 E9.12251
G1 X6.352 Y-9.947 E9.15558
G1 X7.083 Y-9.749 E9.18865
G1 X7.863 Y-9.441 E9.22525
G1 X8.044 Y-9.357 E9.23396
G1 X8.714 Y-9.003 E9.26704
G1 X9.342 Y-8.579 E9.30012
G1 X9.922 Y-8.092 E9.33318
G1 X10.447 Y-7.547 E9.36622
G1 X10.848 Y-7.039 E9.39447
G1 X10.989 Y-6.843 E9.40501
G1 X11.399 Y-6.206 E9.43808
G1 X11.738 Y-5.529 E9.47113
G1 X12.005 Y-4.82 E9.5042
G1 X12.195 Y-4.087 E9.53726
G1 X12.307 Y-3.338 E9.57032
G1 X12.34 Y-2.632 E9.60117
G1 X12.324 Y2.709 E9.83433
G1 X12.282 Y3.466 E9.86743
G1 X12.16 Y4.213 E9.90047
G1 X11.96 Y4.944 E9.93355
G1 X11.684 Y5.649 E9.9666
G1 X11.336 Y6.322 E9.99968
G1 X10.696 Y7.239 E10.04849
G1 X10.559 Y7.406 E10.05792
G1 X10.049 Y7.965 E10.09096
G1 X9.482 Y8.468 E10.12404
G1 X8.865 Y8.907 E10.1571
G1 X8.206 Y9.28 E10.19016
G1 X7.535 Y9.572 E10.2221
G1 X7.306 Y9.658 E10.23278
G1 X6.583 Y9.886 E10.26587
G1 X5.841 Y10.038 E10.29894
G1 X4.776 Y10.116 E10.34555
G0 X4.777 Y9.766
G1 X-4.85 Y9.757 E10.76581
G1 X-5.588 Y9.716 E10.79808
G1 X-6.317 Y9.596 E10.83033
G1 X-7.028 Y9.398 E10.86255
G1 X-7.702 Y9.13 E10.89421
G1 X-7.882 Y9.047 E10.90286
G1 X-8.535 Y8.702 E10.9351
G1 X-9.147 Y8.288 E10.96736
G1 X-9.711 Y7.811 E10.9996
G1 X-10.219 Y7.275 E11.03184
G1 X-10.549 Y6.856 E11.05512
G1 X-10.689 Y6.663 E11.06553
G1 X-11.089 Y6.043 E11.09774
G1 X-11.421 Y5.383 E11.12999
G1 X-11.679 Y4.691 E11.16223
G1 X-11.86 Y3.975 E11.19447
G1 X-11.964 Y3.243 E11.22675
G1 X-11.989 Y2.638 E11.25318
G1 X-11.975 Y-2.708 E11.48656
G1 X-11.933 Y-3.445 E11.51878
G1 X-11.812 Y-4.174 E11.55104
G1 X-11.612 Y-4.885 E11.58328
G1 X-11.337 Y-5.571 E11.61555
G1 X-10.99 Y-6.222 E11.64775
G1 X-10.438 Y-7.005 E11.68957
G1 X-10.305 Y-7.168 E11.69876
G1 X-9.808 Y-7.714 E11.73099
G1 X-9.254 Y-8.203 E11.76324
G1 X-8.651 Y-8.63 E11.7955
G1 X-8.006 Y-8.989 E11.82772
G1 X-7.413 Y-9.243 E11.85588
G1 X-7.181 Y-9.33 E11.8667
G1 X-6.477 Y-9.552 E11.89893
G1 X-5.752 Y-9.696 E11.93119
G1 X-4.78 Y-9.765 E11.97373
G1 X4.848 Y-9.758 E12.39403
G1 X5.585 Y-9.717 E12.42625
G1 X6.314 Y-9.598 E12.4585
G1 X7.026 Y-9.399 E12.49077
G1 X7.716 Y-9.124 E12.5232
G1 X7.897 Y-9.04 E12.53191
G1 X8.549 Y-8.693 E12.56415
G1 X9.16 Y-8.278 E12.59639
G1 X9.723 Y-7.799 E12.62866
G1 X10.23 Y-7.262 E12.6609
G1 X10.564 Y-6.835 E12.68457
G1 X10.705 Y-6.639 E12.69511
G1 X11.104 Y-6.017 E12.72737
G1 X11.432 Y-5.355 E12.75962
G1 X11.688 Y-4.662 E12.79187
G1 X11.867 Y-3.945 E12.82413
G1 X11.967 Y-3.214 E12.85634
G1 X11.99 Y-2.633 E12.88172
G1 X11.974 Y2.708 E13.11488
G1 X11.932 Y3.446 E13.14715
G1 X11.81 Y4.174 E13.17937
G1 X11.611 Y4.886 E13.21164
G1 X11.335 Y5.571 E13.24388
G1 X10.987 Y6.223 E13.27614
G1 X10.426 Y7.017 E13.31858
G1 X10.289 Y7.184 E13.32801
G1 X9.79 Y7.729 E13.36027
G1 X9.235 Y8.216 E13.3925
G1 X8.631 Y8.641 E13.42474
G1 X7.985 Y8.999 E13.45698
G1 X7.411 Y9.244 E13.48423
G1 X7.182 Y9.33 E13.49491
G1 X6.478 Y9.552 E13.52713
G1 X5.754 Y9.697 E13.55936
G1 X4.777 Y9.766 E13.60212
G0 X4.777 Y9.416
G1 X-4.85 Y9.407 E14.02238
G1 X-5.568 Y9.366 E14.05377
G1 X-6.278 Y9.246 E14.08521
G1 X-6.969 Y9.048 E14.11658
G1 X-7.555 Y8.812 E14.14416
G1 X-7.735 Y8.729 E14.15281
G1 X-8.371 Y8.392 E14.18424
G1 X-8.965 Y7.986 E14.21564
G1 X-9.511 Y7.517 E14.24707
G1 X-10.001 Y6.991 E14.27845
G1 X-10.265 Y6.651 E14.29724
G1 X-10.405 Y6.458 E14.30765
G1 X-10.795 Y5.853 E14.33907
G1 X-11.115 Y5.209 E14.37046
G1 X-11.361 Y4.533 E14.40186
G1 X-11.531 Y3.834 E14.43327
G1 X-11.622 Y3.12 E14.46469
G1 X-11.639 Y2.639 E14.4857
G1 X-11.625 Y-2.707 E14.71907
G1 X-11.583 Y-3.425 E14.75047
G1 X-11.462 Y-4.134 E14.78187
G1 X-11.263 Y-4.826 E14.8133
G1 X-10.988 Y-5.491 E14.84472
G1 X-10.641 Y-6.121 E14.87611
G1 X-10.167 Y-6.784 E14.91169
G1 X-10.034 Y-6.947 E14.92088
G1 X-9.549 Y-7.478 E14.95227
G1 X-9.008 Y-7.952 E14.98367
G1 X-8.417 Y-8.363 E15.01509
G1 X-7.785 Y-8.706 E15.04649
G1 X-7.291 Y-8.916 E15.06992
G1 X-7.059 Y-9.003 E15.08073
G1 X-6.372 Y-9.218 E15.11216
G1 X-5.666 Y-9.355 E15.14355
G1 X-4.78 Y-9.415 E15.18232
G1 X4.848 Y-9.408 E15.60262
G1 X5.566 Y-9.368 E15.63401
G1 X6.275 Y-9.248 E15.6654
G1 X6.967 Y-9.05 E15.69682
G1 X7.569 Y-8.806 E15.72518
G1 X7.75 Y-8.722 E15.73389
G1 X8.385 Y-8.384 E15.76529
G1 X8.978 Y-7.977 E15.79669
G1 X9.522 Y-7.506 E15.8281
G1 X10.011 Y-6.979 E15.85949
G1 X10.28 Y-6.63 E15.87872
G1 X10.421 Y-6.434 E15.88926
G1 X10.808 Y-5.828 E15.92065
G1 X11.126 Y-5.182 E15.95208
G1 X11.369 Y-4.505 E15.98348
G1 X11.537 Y-3.806 E16.01487
G1 X11.625 Y-3.092 E16.04627
G1 X11.64 Y-2.634 E16.06627
G1 X11.624 Y2.707 E16.29943
G1 X11.582 Y3.426 E16.33087
G1 X11.46 Y4.135 E16.36228
G1 X11.261 Y4.826 E16.39367
G1 X10.986 Y5.491 E16.42508
G1 X10.639 Y6.121 E16.45648
G1 X10.155 Y6.795 E16.4927
G1 X10.018 Y6.962 E16.50213
G1 X9.532 Y7.492 E16.53352
G1 X8.989 Y7.965 E16.56496
G1 X8.398 Y8.374 E16.59633
G1 X7.765 Y8.716 E16.62774
G1 X7.288 Y8.917 E16.65034
G1 X7.059 Y9.003 E16.66102
G1 X6.373 Y9.218 E16.6924
G1 X5.667 Y9.355 E16.7238
G1 X4.777 Y9.416 E16.76274
G0 X4.777 Y9.066
G1 X-4.85 Y9.057 E17.18299
G1 X-5.548 Y9.016 E17.21352
G1 X-6.238 Y8.896 E17.24409
G1 X-6.909 Y8.698 E17.27463
G1 X-7.409 Y8.494 E17.29821
G1 X-7.589 Y8.411 E17.30686
G1 X-8.206 Y8.082 E17.33738
G1 X-8.783 Y7.685 E17.36796
G1 X-9.31 Y7.225 E17.39849
G1 X-9.982 Y6.445 E17.44344
G1 X-10.122 Y6.252 E17.45385
G1 X-10.5 Y5.664 E17.48436
G1 X-10.808 Y5.035 E17.51493
G1 X-11.043 Y4.376 E17.54548
G1 X-11.2 Y3.694 E17.57603
G1 X-11.279 Y2.999 E17.60656
G1 X-11.289 Y2.64 E17.62224
G1 X-11.275 Y-2.706 E17.85562
G1 X-11.233 Y-3.405 E17.88618
G1 X-11.112 Y-4.094 E17.91672
G1 X-10.913 Y-4.764 E17.94723
G1 X-10.639 Y-5.408 E17.97779
G1 X-10.293 Y-6.016 E18.00832
G1 X-9.896 Y-6.562 E18.03779
G1 X-9.763 Y-6.725 E18.04698
G1 X-9.29 Y-7.241 E18.07753
G1 X-8.762 Y-7.7 E18.10808
G1 X-8.184 Y-8.095 E18.13864
G1 X-7.566 Y-8.422 E18.16916
G1 X-7.168 Y-8.588 E18.18798
G1 X-6.936 Y-8.675 E18.1988
G1 X-6.268 Y-8.883 E18.22934
G1 X-5.58 Y-9.013 E18.25991
G1 X-4.781 Y-9.065 E18.29486
G1 X4.847 Y-9.058 E18.71516
G1 X5.546 Y-9.018 E18.74572
G1 X6.235 Y-8.898 E18.77625
G1 X6.907 Y-8.7 E18.80684
G1 X7.421 Y-8.489 E18.83109
G1 X7.602 Y-8.405 E18.8398
G1 X8.219 Y-8.075 E18.87035
G1 X8.794 Y-7.676 E18.9009
G1 X9.32 Y-7.214 E18.93146
G1 X9.996 Y-6.426 E18.97678
G1 X10.137 Y-6.23 E18.98732
G1 X10.513 Y-5.639 E19.0179
G1 X10.818 Y-5.01 E19.04842
G1 X11.05 Y-4.35 E19.07896
G1 X11.205 Y-3.668 E19.10949
G1 X11.29 Y-2.635 E19.15474
G1 X11.274 Y2.706 E19.38789
G1 X11.232 Y3.405 E19.41846
G1 X11.11 Y4.094 E19.44901
G1 X10.911 Y4.765 E19.47956
G1 X10.637 Y5.408 E19.51007
G1 X10.291 Y6.016 E19.54061
G1 X9.884 Y6.573 E19.57073
G1 X9.747 Y6.74 E19.58016
G1 X9.273 Y7.254 E19.61068
G1 X8.744 Y7.712 E19.64122
G1 X8.166 Y8.106 E19.67176
G1 X7.546 Y8.431 E19.70232
G1 X7.165 Y8.589 E19.72032
G1 X6.936 Y8.675 E19.731
G1 X6.268 Y8.883 E19.76154
G1 X5.581 Y9.014 E19.79207
G1 X4.777 Y9.066 E19.82725
G0 X4.778 Y8.716
G1 X-4.849 Y8.707 E20.2475
G1 X-5.528 Y8.666 E20.2772
G1 X-6.196 Y8.546 E20.30682
G1 X-6.846 Y8.349 E20.33647
G1 X-7.262 Y8.176 E20.35614
G1 X-7.442 Y8.093 E20.3648
G1 X-8.041 Y7.773 E20.39444
G1 X-8.599 Y7.385 E20.42411
G1 X-9.107 Y6.933 E20.45379
G1 X-9.699 Y6.24 E20.49358
G1 X-9.839 Y6.047 E20.50399
G1 X-10.205 Y5.474 E20.53367
G1 X-10.501 Y4.863 E20.56331
G1 X-10.723 Y4.221 E20.59296
G1 X-10.868 Y3.557 E20.62263
G1 X-10.939 Y2.641 E20.66274
G1 X-10.925 Y-2.705 E20.89611
G1 X-10.883 Y-3.383 E20.92577
G1 X-10.762 Y-4.052 E20.95545
G1 X-10.563 Y-4.701 E20.98508
G1 X-10.29 Y-5.323 E21.01473
G1 X-9.945 Y-5.909 E21.04442
G1 X-9.624 Y-6.341 E21.06791
G1 X-9.491 Y-6.504 E21.0771
G1 X-9.032 Y-7.004 E21.10673
G1 X-8.516 Y-7.447 E21.13641
G1 X-7.953 Y-7.826 E21.16604
G1 X-7.045 Y-8.26 E21.20997
G1 X-6.813 Y-8.347 E21.22079
G1 X-6.164 Y-8.548 E21.25045
G1 X-5.495 Y-8.671 E21.28014
G1 X-4.781 Y-8.715 E21.31137
G1 X4.847 Y-8.708 E21.73167
G1 X5.525 Y-8.668 E21.76132
G1 X6.194 Y-8.548 E21.79099
G1 X6.844 Y-8.35 E21.82065
G1 X7.274 Y-8.171 E21.84099
G1 X7.455 Y-8.087 E21.8497
G1 X8.053 Y-7.766 E21.87932
G1 X8.61 Y-7.376 E21.90901
G1 X9.117 Y-6.923 E21.93869
G1 X9.712 Y-6.221 E21.97886
G1 X9.853 Y-6.025 E21.9894
G1 X10.217 Y-5.452 E22.01903
G1 X10.51 Y-4.839 E22.04869
G1 X10.73 Y-4.196 E22.07836
G1 X10.873 Y-3.532 E22.10801
G1 X10.94 Y-2.636 E22.14723
G1 X10.924 Y2.705 E22.38039
G1 X10.882 Y3.383 E22.41005
G1 X10.761 Y4.052 E22.43972
G1 X10.562 Y4.702 E22.4694
G1 X10.288 Y5.323 E22.49903
G1 X9.943 Y5.909 E22.52871
G1 X9.614 Y6.351 E22.55277
G1 X9.477 Y6.518 E22.5622
G1 X9.016 Y7.017 E22.59185
G1 X8.499 Y7.458 E22.62152
G1 X7.935 Y7.836 E22.65116
G1 X7.042 Y8.261 E22.69433
G1 X6.813 Y8.347 E22.70501
G1 X6.164 Y8.548 E22.73467
G1 X5.496 Y8.672 E22.76433
G1 X4.778 Y8.716 E22.79573
G0 X4.778 Y8.366
G1 X-4.849 Y8.357 E23.21599
G1 X-5.506 Y8.316 E23.24472
G1 X-6.154 Y8.197 E23.27348
G1 X-6.782 Y7.999 E23.30223
G1 X-7.116 Y7.858 E23.31805
G1 X-7.296 Y7.775 E23.32671
G1 X-7.876 Y7.464 E23.35544
G1 X-8.414 Y7.084 E23.38419
G1 X-8.902 Y6.643 E23.4129
G1 X-9.415 Y6.034 E23.44766
G1 X-9.555 Y5.841 E23.45807
G1 X-9.909 Y5.286 E23.48681
G1 X-10.193 Y4.692 E23.51555
G1 X-10.402 Y4.067 E23.54432
G1 X-10.535 Y3.422 E23.57307
G1 X-10.589 Y2.642 E23.6072
G1 X-10.575 Y-2.704 E23.84057
G1 X-10.533 Y-3.361 E23.86931
G1 X-10.412 Y-4.009 E23.89809
G1 X-10.214 Y-4.636 E23.92679
G1 X-9.941 Y-5.236 E23.95557
G1 X-9.597 Y-5.797 E23.9843
G1 X-9.353 Y-6.12 E24.00197
G1 X-9.22 Y-6.283 E24.01115
G1 X-8.774 Y-6.767 E24.03988
G1 X-8.272 Y-7.193 E24.06862
G1 X-7.722 Y-7.555 E24.09737
G1 X-6.922 Y-7.933 E24.13599
G1 X-6.69 Y-8.02 E24.14681
G1 X-6.06 Y-8.213 E24.17557
G1 X-5.412 Y-8.329 E24.20431
G1 X-4.781 Y-8.365 E24.2319
G1 X4.847 Y-8.358 E24.6522
G1 X5.504 Y-8.318 E24.68094
G1 X6.152 Y-8.198 E24.7097
G1 X6.78 Y-8 E24.73845
G1 X7.127 Y-7.854 E24.75488
G1 X7.308 Y-7.77 E24.76359
G1 X7.887 Y-7.457 E24.79233
G1 X8.424 Y-7.076 E24.82107
G1 X8.911 Y-6.633 E24.84981
G1 X9.428 Y-6.017 E24.88492
G1 X9.569 Y-5.821 E24.89546
G1 X9.92 Y-5.264 E24.9242
G1 X10.202 Y-4.669 E24.95294
G1 X10.409 Y-4.044 E24.98168
G1 X10.539 Y-3.398 E25.01045
G1 X10.59 Y-2.637 E25.04374
G1 X10.574 Y2.704 E25.2769
G1 X10.532 Y3.361 E25.30564
