;FLAVOR:Marlin
;TIME:1281
;Filament used: 0.867404m
;Layer height: 0.2
;Generated with Cura_SteamEngine 3.2.1
M82 ;absolute extrusion mode
; info: M303 E0 S200 C8 ; Pid auto-tune 

M140 S60; Start heating up the base
G28 ; Home to top 3 endstops
; Autolevel and adjust first layer
; Adjust this value to fit your own printer!  (positive is thicker)
; This default value is intentionally very high to accommodate the
; variety of print heads used with this printer.  Many of you will
; need tiny values like Z0 or Z0.1.  Use feeler gauges to dial this
; in as accurately as possible.
G29 Z10

; Squirt and wipe ;
M109 S220 ; Wait for the temp to hit 220
G00 X125 Y-60 Z0.1 ;
G92 E0 ;
G01 E25 F100 ; Extrude a little bit to replace oozage from auto levelling
G01 X90 Y-50 F6000 ;
G01 Z5 ;

; Set the extruder to the requested print temperature
M104 S200

;LAYER_COUNT:50
;LAYER:0
M107
G0 F1500 X0.005 Y-14.774 Z0.3
;TYPE:SKIRT
G1 X0.217 Y-14.867 E0.01011
G1 X0.973 Y-15.11 E0.04477
G1 X1.749 Y-15.275 E0.0794
G1 X2.537 Y-15.361 E0.11401
G1 X3 Y-15.375 E0.13423
G1 X7 Y-15.375 E0.30884
G1 X7.792 Y-15.335 E0.34346
G1 X8.577 Y-15.216 E0.37812
G1 X9.345 Y-15.018 E0.41274
G1 X10.09 Y-14.743 E0.44741
G1 X10.803 Y-14.396 E0.48203
G1 X11.478 Y-13.978 E0.51669
G1 X12.107 Y-13.495 E0.55131
G1 X12.684 Y-12.95 E0.58595
G1 X13.204 Y-12.351 E0.62058
G1 X13.66 Y-11.702 E0.65521
G1 X14.049 Y-11.01 E0.68986
G1 X14.367 Y-10.283 E0.7245
G1 X14.61 Y-9.527 E0.75917
G1 X14.775 Y-8.751 E0.7938
G1 X14.861 Y-7.963 E0.8284
G1 X14.875 Y-7.5 E0.84862
G1 X14.875 Y-3.375 E1.0287
G1 X15 Y-3.375 E1.03415
G1 X15.792 Y-3.335 E1.06877
G1 X16.577 Y-3.216 E1.10343
G1 X17.345 Y-3.018 E1.13805
G1 X18.09 Y-2.743 E1.17272
G1 X18.803 Y-2.396 E1.20734
G1 X19.478 Y-1.978 E1.24199
G1 X20.107 Y-1.495 E1.27661
G1 X20.684 Y-.95 E1.31126
G1 X21.204 Y-.351 E1.34589
G1 X21.66 Y0.298 E1.38051
G1 X22.049 Y0.99 E1.41517
G1 X22.367 Y1.717 E1.44981
G1 X22.61 Y2.473 E1.48447
G1 X22.775 Y3.249 E1.51911
G1 X22.861 Y4.037 E1.55371
G1 X22.875 Y4.5 E1.57393
G1 X22.875 Y7.5 E1.70489
G1 X22.835 Y8.292 E1.73951
G1 X22.716 Y9.077 E1.77417
G1 X22.518 Y9.845 E1.80879
G1 X22.243 Y10.59 E1.84346
G1 X21.896 Y11.303 E1.87808
G1 X21.478 Y11.978 E1.91274
G1 X20.995 Y12.607 E1.94735
G1 X20.45 Y13.184 E1.982
G1 X19.851 Y13.704 E2.01663
G1 X19.202 Y14.16 E2.05126
G1 X18.51 Y14.549 E2.08591
G1 X17.783 Y14.867 E2.12055
G1 X17.027 Y15.11 E2.15521
G1 X16.251 Y15.275 E2.18985
G1 X15.463 Y15.361 E2.22445
G1 X15 Y15.375 E2.24467
G1 X-15 Y15.375 E3.55429
G1 X-15.792 Y15.335 E3.58891
G1 X-16.577 Y15.216 E3.62357
G1 X-17.345 Y15.018 E3.65819
G1 X-18.09 Y14.743 E3.69286
G1 X-18.803 Y14.396 E3.72747
G1 X-19.478 Y13.978 E3.76213
G1 X-20.107 Y13.495 E3.79675
G1 X-20.684 Y12.95 E3.8314
G1 X-21.204 Y12.351 E3.86603
G1 X-21.66 Y11.702 E3.90065
G1 X-22.049 Y11.01 E3.93531
G1 X-22.367 Y10.283 E3.96995
G1 X-22.61 Y9.527 E4.00461
G1 X-22.775 Y8.751 E4.03924
G1 X-22.861 Y7.963 E4.07385
G1 X-22.875 Y7.5 E4.09407
G1 X-22.875 Y4.5 E4.22503
G1 X-22.835 Y3.708 E4.25965
G1 X-22.716 Y2.923 E4.29431
G1 X-22.518 Y2.155 E4.32893
G1 X-22.243 Y1.41 E4.3636
G1 X-21.896 Y0.697 E4.39821
G1 X-21.478 Y0.022 E4.43287
G1 X-20.995 Y-.607 E4.46749
G1 X-20.45 Y-1.184 E4.50214
G1 X-19.851 Y-1.704 E4.53677
G1 X-19.202 Y-2.16 E4.57139
G1 X-18.51 Y-2.549 E4.60605
G1 X-17.783 Y-2.867 E4.64069
G1 X-17.027 Y-3.11 E4.67535
G1 X-16.251 Y-3.275 E4.70999
G1 X-15.463 Y-3.361 E4.74459
G1 X-15 Y-3.375 E4.76481
G1 X-14.875 Y-3.375 E4.77027
G1 X-14.875 Y-7.5 E4.95034
G1 X-14.835 Y-8.292 E4.98496
G1 X-14.716 Y-9.077 E5.01962
G1 X-14.518 Y-9.845 E5.05424
G1 X-14.243 Y-10.59 E5.08891
G1 X-13.896 Y-11.303 E5.12352
G1 X-13.478 Y-11.978 E5.15818
G1 X-12.995 Y-12.607 E5.1928
G1 X-12.45 Y-13.184 E5.22745
G1 X-11.851 Y-13.704 E5.26208
G1 X-11.202 Y-14.16 E5.2967
G1 X-10.51 Y-14.549 E5.33136
G1 X-9.783 Y-14.867 E5.366
G1 X-9.027 Y-15.11 E5.40066
G1 X-8.251 Y-15.275 E5.43529
G1 X-7.463 Y-15.361 E5.4699
G1 X-7 Y-15.375 E5.49012
G1 X-3 Y-15.375 E5.66473
G1 X-2.208 Y-15.335 E5.69935
G1 X-1.423 Y-15.216 E5.73401
G1 X-.655 Y-15.018 E5.76863
G1 X0.005 Y-14.774 E5.79935
G0 X0.01 Y-14.397
G1 X0.538 Y-14.611 E5.82422
G1 X1.283 Y-14.826 E5.85807
G1 X2.046 Y-14.964 E5.89192
G1 X3 Y-15.025 E5.93365
G1 X7 Y-15.025 E6.10827
G1 X7.775 Y-14.985 E6.14214
G1 X8.541 Y-14.866 E6.17598
G1 X9.291 Y-14.668 E6.20985
G1 X10.017 Y-14.394 E6.24372
G1 X10.71 Y-14.047 E6.27755
G1 X11.364 Y-13.63 E6.31141
G1 X11.972 Y-13.148 E6.34528
G1 X12.527 Y-12.606 E6.37915
G1 X13.024 Y-12.01 E6.41302
G1 X13.456 Y-11.366 E6.44688
G1 X13.819 Y-10.681 E6.48072
G1 X14.111 Y-9.962 E6.5146
G1 X14.326 Y-9.217 E6.54844
G1 X14.464 Y-8.454 E6.58229
G1 X14.525 Y-7.5 E6.62402
G1 X14.525 Y-3.025 E6.81938
G1 X15 Y-3.025 E6.84011
G1 X15.775 Y-2.985 E6.87399
G1 X16.541 Y-2.866 E6.90783
G1 X17.291 Y-2.668 E6.94169
G1 X18.017 Y-2.394 E6.97556
G1 X18.71 Y-2.047 E7.0094
G1 X19.364 Y-1.63 E7.04326
G1 X19.972 Y-1.148 E7.07713
G1 X20.527 Y-.606 E7.11099
G1 X21.024 Y-0.01 E7.14487
G1 X21.456 Y0.634 E7.17872
G1 X21.819 Y1.319 E7.21256
G1 X22.111 Y2.038 E7.24644
G1 X22.326 Y2.783 E7.28029
G1 X22.464 Y3.546 E7.31414
G1 X22.525 Y4.5 E7.35587
G1 X22.525 Y7.5 E7.48683
G1 X22.485 Y8.275 E7.52071
G1 X22.366 Y9.041 E7.55455
G1 X22.168 Y9.791 E7.58841
G1 X21.894 Y10.517 E7.62228
G1 X21.547 Y11.21 E7.65612
G1 X21.13 Y11.864 E7.68998
G1 X20.648 Y12.472 E7.72385
G1 X20.106 Y13.027 E7.75771
G1 X19.51 Y13.524 E7.79159
G1 X18.866 Y13.956 E7.82544
G1 X18.181 Y14.319 E7.85928
G1 X17.462 Y14.611 E7.89316
G1 X16.717 Y14.826 E7.92701
G1 X15.954 Y14.964 E7.96086
G1 X15 Y15.025 E8.00259
G1 X-15 Y15.025 E9.31221
G1 X-15.775 Y14.985 E9.34608
G1 X-16.541 Y14.866 E9.37992
G1 X-17.291 Y14.668 E9.41378
G1 X-18.017 Y14.394 E9.44766
G1 X-18.71 Y14.047 E9.48149
G1 X-19.364 Y13.63 E9.51535
G1 X-19.972 Y13.148 E9.54922
G1 X-20.527 Y12.606 E9.58309
G1 X-21.024 Y12.01 E9.61696
G1 X-21.456 Y11.366 E9.65082
G1 X-21.819 Y10.681 E9.68466
G1 X-22.111 Y9.962 E9.71853
G1 X-22.326 Y9.217 E9.75238
G1 X-22.464 Y8.454 E9.78623
G1 X-22.525 Y7.5 E9.82796
G1 X-22.525 Y4.5 E9.95892
G1 X-22.485 Y3.725 E9.9928
G1 X-22.366 Y2.959 E10.02664
G1 X-22.168 Y2.209 E10.0605
G1 X-21.894 Y1.483 E10.09438
G1 X-21.547 Y0.79 E10.12821
G1 X-21.13 Y0.136 E10.16207
G1 X-20.648 Y-.472 E10.19594
G1 X-20.106 Y-1.027 E10.22981
G1 X-19.51 Y-1.524 E10.26368
G1 X-18.866 Y-1.956 E10.29753
G1 X-18.181 Y-2.319 E10.33138
G1 X-17.462 Y-2.611 E10.36525
G1 X-16.717 Y-2.826 E10.3991
G1 X-15.954 Y-2.964 E10.43295
G1 X-15 Y-3.025 E10.47468
G1 X-14.525 Y-3.025 E10.49542
G1 X-14.525 Y-7.5 E10.69077
G1 X-14.485 Y-8.275 E10.72465
G1 X-14.366 Y-9.041 E10.75849
G1 X-14.168 Y-9.791 E10.79235
G1 X-13.894 Y-10.517 E10.82622
G1 X-13.547 Y-11.21 E10.86006
G1 X-13.13 Y-11.864 E10.89392
G1 X-12.648 Y-12.472 E10.92779
G1 X-12.106 Y-13.027 E10.96165
G1 X-11.51 Y-13.524 E10.99553
G1 X-10.866 Y-13.956 E11.02938
G1 X-10.181 Y-14.319 E11.06322
G1 X-9.462 Y-14.611 E11.0971
G1 X-8.717 Y-14.826 E11.13095
G1 X-7.954 Y-14.964 E11.1648
G1 X-7 Y-15.025 E11.20653
G1 X-3 Y-15.025 E11.38114
G1 X-2.225 Y-14.985 E11.41502
G1 X-1.459 Y-14.866 E11.44886
G1 X-.709 Y-14.668 E11.48272
G1 X0.01 Y-14.397 E11.51626
G0 X0.146 Y-14.083
G1 X0.855 Y-14.347 E11.54929
G1 X1.589 Y-14.535 E11.58237
G1 X2.338 Y-14.644 E11.61541
G1 X3 Y-14.675 E11.64434
G1 X7 Y-14.675 E11.81895
G1 X7.756 Y-14.635 E11.852
G1 X8.504 Y-14.516 E11.88507
G1 X9.235 Y-14.318 E11.91813
G1 X9.942 Y-14.044 E11.95123
G1 X10.615 Y-13.698 E11.98426
G1 X11.248 Y-13.282 E12.01733
G1 X11.834 Y-12.802 E12.0504
G1 X12.366 Y-12.263 E12.08346
G1 X12.838 Y-11.671 E12.11651
G1 X13.245 Y-11.032 E12.14958
G1 X13.583 Y-10.354 E12.18265
G1 X13.847 Y-9.645 E12.21568
G1 X14.035 Y-8.911 E12.24875
G1 X14.144 Y-8.162 E12.2818
G1 X14.175 Y-7.5 E12.31073
G1 X14.175 Y-2.675 E12.52136
G1 X15 Y-2.675 E12.55737
G1 X15.756 Y-2.635 E12.59042
G1 X16.504 Y-2.516 E12.62348
G1 X17.235 Y-2.318 E12.65654
G1 X17.942 Y-2.044 E12.68964
G1 X18.615 Y-1.698 E12.72268
G1 X19.248 Y-1.282 E12.75575
G1 X19.834 Y-.802 E12.78881
G1 X20.366 Y-.263 E12.82187
G1 X20.838 Y0.329 E12.85492
G1 X21.245 Y0.968 E12.888
G1 X21.583 Y1.646 E12.92107
G1 X21.847 Y2.355 E12.9541
G1 X22.035 Y3.089 E12.98717
G1 X22.144 Y3.838 E13.02021
G1 X22.175 Y4.5 E13.04914
G1 X22.175 Y7.5 E13.18011
G1 X22.135 Y8.256 E13.21315
G1 X22.016 Y9.004 E13.24622
G1 X21.818 Y9.735 E13.27928
G1 X21.544 Y10.442 E13.31238
G1 X21.198 Y11.115 E13.34541
G1 X20.782 Y11.748 E13.37848
G1 X20.302 Y12.334 E13.41155
G1 X19.763 Y12.866 E13.44461
G1 X19.171 Y13.338 E13.47766
G1 X18.532 Y13.745 E13.51073
G1 X17.854 Y14.083 E13.5438
G1 X17.145 Y14.347 E13.57683
G1 X16.411 Y14.535 E13.60991
G1 X15.662 Y14.644 E13.64295
G1 X15 Y14.675 E13.67188
G1 X-15 Y14.675 E14.9815
G1 X-15.756 Y14.635 E15.01454
G1 X-16.504 Y14.516 E15.04761
G1 X-17.235 Y14.318 E15.08067
G1 X-17.942 Y14.044 E15.11377
G1 X-18.615 Y13.698 E15.1468
G1 X-19.248 Y13.282 E15.17987
G1 X-19.834 Y12.802 E15.21294
G1 X-20.366 Y12.263 E15.246
G1 X-20.838 Y11.671 E15.27905
G1 X-21.245 Y11.032 E15.31212
G1 X-21.583 Y10.354 E15.34519
G1 X-21.847 Y9.645 E15.37822
G1 X-22.035 Y8.911 E15.4113
G1 X-22.144 Y8.162 E15.44434
G1 X-22.175 Y7.5 E15.47327
G1 X-22.175 Y4.5 E15.60423
G1 X-22.135 Y3.744 E15.63728
G1 X-22.016 Y2.996 E15.67034
G1 X-21.818 Y2.265 E15.7034
G1 X-21.544 Y1.558 E15.7365
G1 X-21.198 Y0.885 E15.76954
G1 X-20.782 Y0.252 E15.8026
G1 X-20.302 Y-.334 E15.83567
G1 X-19.763 Y-.866 E15.86873
G1 X-19.171 Y-1.338 E15.90178
G1 X-18.532 Y-1.745 E15.93485
G1 X-17.854 Y-2.083 E15.96793
G1 X-17.145 Y-2.347 E16.00095
G1 X-16.411 Y-2.535 E16.03403
G1 X-15.662 Y-2.644 E16.06707
G1 X-15 Y-2.675 E16.096
G1 X-14.175 Y-2.675 E16.13202
G1 X-14.175 Y-7.5 E16.34265
G1 X-14.135 Y-8.256 E16.37569
G1 X-14.016 Y-9.004 E16.40876
G1 X-13.818 Y-9.735 E16.44182
G1 X-13.544 Y-10.442 E16.47492
G1 X-13.198 Y-11.115 E16.50795
G1 X-12.782 Y-11.748 E16.54102
G1 X-12.302 Y-12.334 E16.57409
G1 X-11.763 Y-12.866 E16.60715
G1 X-11.171 Y-13.338 E16.6402
G1 X-10.532 Y-13.745 E16.67327
G1 X-9.854 Y-14.083 E16.70634
G1 X-9.145 Y-14.347 E16.73937
G1 X-8.411 Y-14.535 E16.77245
G1 X-7.662 Y-14.644 E16.80549
G1 X-7 Y-14.675 E16.83442
G1 X-3 Y-14.675 E17.00903
G1 X-2.244 Y-14.635 E17.04208
G1 X-1.496 Y-14.516 E17.07515
G1 X-.765 Y-14.318 E17.10821
G1 X-0.058 Y-14.044 E17.14131
G1 X0.004 Y-14.012 E17.14435
G1 X0.146 Y-14.083 E17.15128
G0 X0.47 Y-13.839
G1 X1.17 Y-14.075 E17.18353
G1 X1.891 Y-14.234 E17.21576
G1 X2.626 Y-14.315 E17.24804
G1 X3 Y-14.325 E17.26437
G1 X7 Y-14.325 E17.43899
G1 X7.738 Y-14.285 E17.47125
G1 X8.466 Y-14.166 E17.50346
G1 X9.178 Y-13.968 E17.53572
G1 X9.864 Y-13.695 E17.56795
G1 X10.517 Y-13.349 E17.60021
G1 X11.129 Y-12.935 E17.63246
G1 X11.692 Y-12.457 E17.6647
G1 X12.2 Y-11.921 E17.69694
G1 X12.647 Y-11.333 E17.72918
G1 X13.028 Y-10.7 E17.76144
G1 X13.339 Y-10.03 E17.79368
G1 X13.575 Y-9.33 E17.82593
G1 X13.734 Y-8.609 E17.85816
G1 X13.815 Y-7.874 E17.89044
G1 X13.825 Y-7.5 E17.90677
G1 X13.825 Y-2.325 E18.13268
G1 X15 Y-2.325 E18.18397
G1 X15.738 Y-2.285 E18.21624
G1 X16.466 Y-2.166 E18.24844
G1 X17.178 Y-1.968 E18.2807
G1 X17.864 Y-1.695 E18.31293
G1 X18.517 Y-1.349 E18.34519
G1 X19.129 Y-.935 E18.37745
G1 X19.692 Y-.457 E18.40969
G1 X20.2 Y0.079 E18.44193
G1 X20.647 Y0.667 E18.47417
G1 X21.028 Y1.3 E18.50642
G1 X21.339 Y1.97 E18.53867
G1 X21.575 Y2.67 E18.57091
G1 X21.734 Y3.391 E18.60315
G1 X21.815 Y4.126 E18.63543
G1 X21.825 Y4.5 E18.65176
G1 X21.825 Y7.5 E18.78272
G1 X21.785 Y8.238 E18.81498
G1 X21.666 Y8.966 E18.84719
G1 X21.468 Y9.678 E18.87945
G1 X21.195 Y10.364 E18.91168
G1 X20.849 Y11.017 E18.94394
G1 X20.435 Y11.629 E18.97619
G1 X19.957 Y12.192 E19.00843
G1 X19.421 Y12.7 E19.04067
G1 X18.833 Y13.147 E19.07291
G1 X18.2 Y13.528 E19.10517
G1 X17.53 Y13.839 E19.13741
G1 X16.83 Y14.075 E19.16966
G1 X16.109 Y14.234 E19.20189
G1 X15.374 Y14.315 E19.23417
G1 X15 Y14.325 E19.2505
G1 X-15 Y14.325 E20.56012
G1 X-15.738 Y14.285 E20.59238
G1 X-16.466 Y14.166 E20.62459
G1 X-17.178 Y13.968 E20.65685
G1 X-17.864 Y13.695 E20.68908
G1 X-18.517 Y13.349 E20.72134
G1 X-19.129 Y12.935 E20.75359
G1 X-19.692 Y12.457 E20.78583
G1 X-20.2 Y11.921 E20.81807
G1 X-20.647 Y11.333 E20.85032
G1 X-21.028 Y10.7 E20.88257
G1 X-21.339 Y10.03 E20.91481
G1 X-21.575 Y9.33 E20.94706
G1 X-21.734 Y8.609 E20.97929
G1 X-21.815 Y7.874 E21.01157
G1 X-21.825 Y7.5 E21.0279
G1 X-21.825 Y4.5 E21.15887
G1 X-21.785 Y3.762 E21.19113
G1 X-21.666 Y3.034 E21.22333
G1 X-21.468 Y2.322 E21.25559
G1 X-21.195 Y1.636 E21.28782
G1 X-20.849 Y0.983 E21.32008
G1 X-20.435 Y0.371 E21.35234
G1 X-19.957 Y-.192 E21.38458
G1 X-19.421 Y-.7 E21.41682
G1 X-18.833 Y-1.147 E21.44906
G1 X-18.2 Y-1.528 E21.48131
G1 X-17.53 Y-1.839 E21.51356
G1 X-16.83 Y-2.075 E21.54581
G1 X-16.109 Y-2.234 E21.57804
G1 X-15.374 Y-2.315 E21.61032
G1 X-15 Y-2.325 E21.62665
G1 X-13.825 Y-2.325 E21.67794
G1 X-13.825 Y-7.5 E21.90385
G1 X-13.785 Y-8.238 E21.93611
G1 X-13.666 Y-8.966 E21.96832
G1 X-13.468 Y-9.678 E22.00058
G1 X-13.195 Y-10.364 E22.03281
G1 X-12.849 Y-11.017 E22.06507
G1 X-12.435 Y-11.629 E22.09732
G1 X-11.957 Y-12.192 E22.12956
G1 X-11.421 Y-12.7 E22.1618
G1 X-10.833 Y-13.147 E22.19405
G1 X-10.2 Y-13.528 E22.2263
G1 X-9.53 Y-13.839 E22.25854
G1 X-8.83 Y-14.075 E22.29079
G1 X-8.109 Y-14.234 E22.32302
G1 X-7.374 Y-14.315 E22.3553
G1 X-7 Y-14.325 E22.37163
G1 X-3 Y-14.325 E22.54625
G1 X-2.262 Y-14.285 E22.57851
G1 X-1.534 Y-14.166 E22.61072
G1 X-.822 Y-13.968 E22.64298
G1 X-.136 Y-13.695 E22.67521
G1 X0.002 Y-13.622 E22.68202
G1 X0.47 Y-13.839 E22.70454
G0 X0.792 Y-13.587
G1 X1.481 Y-13.794 E22.73595
G1 X2.189 Y-13.924 E22.76737
G1 X3 Y-13.975 E22.80284
G1 X7 Y-13.975 E22.97746
G1 X7.718 Y-13.935 E23.00885
G1 X8.428 Y-13.816 E23.04028
G1 X9.12 Y-13.618 E23.0717
G1 X9.785 Y-13.345 E23.10308
G1 X10.417 Y-13 E23.13451
G1 X11.006 Y-12.587 E23.16592
G1 X11.545 Y-12.111 E23.19731
G1 X12.029 Y-11.579 E23.2287
G1 X12.45 Y-10.996 E23.2601
G1 X12.804 Y-10.369 E23.29153
G1 X13.087 Y-9.708 E23.32292
G1 X13.294 Y-9.019 E23.35432
G1 X13.424 Y-8.311 E23.38575
G1 X13.475 Y-7.5 E23.42122
G1 X13.475 Y-1.975 E23.66241
G1 X15 Y-1.975 E23.72898
G1 X15.718 Y-1.935 E23.76037
G1 X16.428 Y-1.816 E23.7918
G1 X17.12 Y-1.618 E23.82322
G1 X17.785 Y-1.345 E23.8546
G1 X18.417 Y-1 E23.88603
G1 X19.006 Y-.587 E23.91744
G1 X19.545 Y-.111 E23.94883
G1 X20.029 Y0.421 E23.98022
G1 X20.45 Y1.004 E24.01162
G1 X20.804 Y1.631 E24.04305
G1 X21.087 Y2.292 E24.07444
G1 X21.294 Y2.981 E24.10584
G1 X21.424 Y3.689 E24.13727
G1 X21.475 Y4.5 E24.17274
G1 X21.475 Y7.5 E24.3037
G1 X21.435 Y8.218 E24.33509
G1 X21.316 Y8.928 E24.36652
G1 X21.118 Y9.62 E24.39794
G1 X20.845 Y10.285 E24.42932
G1 X20.5 Y10.917 E24.46075
G1 X20.087 Y11.506 E24.49216
G1 X19.611 Y12.045 E24.52355
G1 X19.079 Y12.529 E24.55495
G1 X18.496 Y12.95 E24.58634
G1 X17.869 Y13.304 E24.61777
G1 X17.208 Y13.587 E24.64916
G1 X16.519 Y13.794 E24.68056
G1 X15.811 Y13.924 E24.71199
G1 X15 Y13.975 E24.74746
G1 X-15 Y13.975 E26.05708
G1 X-15.718 Y13.935 E26.08847
G1 X-16.428 Y13.816 E26.1199
G1 X-17.12 Y13.618 E26.15132
G1 X-17.785 Y13.345 E26.1827
G1 X-18.417 Y13 E26.21413
G1 X-19.006 Y12.587 E26.24554
G1 X-19.545 Y12.111 E26.27693
G1 X-20.029 Y11.579 E26.30832
G1 X-20.45 Y10.996 E26.33972
G1 X-20.804 Y10.369 E26.37115
G1 X-21.087 Y9.708 E26.40254
G1 X-21.294 Y9.019 E26.43394
G1 X-21.424 Y8.311 E26.46537
G1 X-21.475 Y7.5 E26.50084
G1 X-21.475 Y4.5 E26.6318
G1 X-21.435 Y3.782 E26.66319
G1 X-21.316 Y3.072 E26.69462
G1 X-21.118 Y2.38 E26.72604
G1 X-20.845 Y1.715 E26.75742
G1 X-20.5 Y1.083 E26.78885
G1 X-20.087 Y0.494 E26.82026
G1 X-19.611 Y-0.045 E26.85165
G1 X-19.079 Y-.529 E26.88305
G1 X-18.496 Y-.95 E26.91444
G1 X-17.869 Y-1.304 E26.94587
G1 X-17.208 Y-1.587 E26.97726
G1 X-16.519 Y-1.794 E27.00866
G1 X-15.811 Y-1.924 E27.04009
G1 X-15 Y-1.975 E27.07556
G1 X-13.475 Y-1.975 E27.14213
G1 X-13.475 Y-7.5 E27.38332
G1 X-13.435 Y-8.218 E27.41471
G1 X-13.316 Y-8.928 E27.44614
G1 X-13.118 Y-9.62 E27.47756
G1 X-12.845 Y-10.285 E27.50894
G1 X-12.5 Y-10.917 E27.54037
G1 X-12.087 Y-11.506 E27.57178
G1 X-11.611 Y-12.045 E27.60317
G1 X-11.079 Y-12.529 E27.63457
G1 X-10.496 Y-12.95 E27.66596
G1 X-9.869 Y-13.304 E27.69739
