;FLAVOR:Marlin
;TIME:6673
;Filament used: 6.60939m
;Layer height: 0.2
;Generated with Cura_SteamEngine 3.2.1
M82 ;absolute extrusion mode
; info: M303 E0 S200 C8 ; Pid auto-tune 

M140 S60; Start heating up the base
G28 ; Home to top 3 endstops
; Autolevel and adjust first layer
; Adjust this value to fit your own printer!  (positive is thicker)
; This default value is intentionally very high to accommodate the
; variety of print heads used with this printer.  Many of you will
; need tiny values like Z0 or Z0.1.  Use feeler gauges to dial this
; in as accurately as possible.
;G29 Z10

; Squirt and wipe ;
;M109 S220 ; Wait for the temp to hit 220
;G00 X125 Y-60 Z0.1 ;
;G92 E0 ;
;G01 E25 F100 ; Extrude a little bit to replace oozage from auto levelling
;G01 X90 Y-50 F6000 ;
;G01 Z5 ;

; Set the extruder to the requested print temperature
M109 S200

;LAYER_COUNT:70
;LAYER:0
M107
G0 F1500 X18.417 Y32.987 Z0.3
;TYPE:SKIRT
G1 X16.124 Y34.167 E0.11258
G1 X15.666 Y34.385 E0.13472
G1 X14.486 Y34.899 E0.1909
G1 X14.013 Y35.087 E0.21312
G1 X11.59 Y35.961 E0.32557
G1 X10.939 Y36.164 E0.35534
G1 X8.449 Y36.825 E0.4678
G1 X7.956 Y36.939 E0.48989
G1 X6.631 Y37.201 E0.54885
G1 X6.26 Y37.266 E0.56529
G1 X4.907 Y37.467 E0.625
G1 X4.373 Y37.527 E0.64846
G1 X1.564 Y37.75 E0.77147
G1 X0.874 Y37.775 E0.80161
G1 X-1.492 Y37.755 E0.9049
G1 X-2.159 Y37.721 E0.93406
G1 X-4.894 Y37.465 E1.05397
G1 X-5.599 Y37.366 E1.08505
G1 X-8.204 Y36.882 E1.20071
G1 X-8.885 Y36.724 E1.23123
G1 X-11.436 Y36.011 E1.34686
G1 X-12.099 Y35.794 E1.37732
G1 X-14.577 Y34.858 E1.49295
G1 X-15.214 Y34.585 E1.5232
G1 X-17.595 Y33.437 E1.63859
G1 X-18.204 Y33.109 E1.66879
G1 X-20.419 Y31.79 E1.78133
G1 X-20.981 Y31.422 E1.81065
G1 X-23.074 Y29.92 E1.92311
G1 X-23.614 Y29.496 E1.95309
G1 X-25.569 Y27.817 E2.06558
G1 X-26.06 Y27.358 E2.09492
G1 X-27.864 Y25.519 E2.20738
G1 X-28.319 Y25.012 E2.23712
G1 X-29.959 Y23.022 E2.34969
G1 X-30.368 Y22.48 E2.37933
G1 X-31.829 Y20.358 E2.4918
G1 X-32.188 Y19.787 E2.52124
G1 X-33.462 Y17.548 E2.6337
G1 X-33.703 Y17.089 E2.65633
G1 X-34.266 Y15.928 E2.71266
G1 X-34.4 Y15.637 E2.72664
G1 X-34.914 Y14.457 E2.78283
G1 X-35.107 Y13.97 E2.8057
G1 X-35.977 Y11.544 E2.9182
G1 X-36.177 Y10.9 E2.94764
G1 X-36.836 Y8.409 E3.06012
G1 X-36.951 Y7.908 E3.08256
G1 X-37.211 Y6.58 E3.14164
G1 X-37.297 Y6.041 E3.16546
G1 X-37.636 Y3.322 E3.28508
G1 X-37.691 Y2.658 E3.31416
G1 X-37.783 Y0.323 E3.41617
G1 X-37.78 Y-.356 E3.44582
G1 X-37.649 Y-3.146 E3.56774
G1 X-37.583 Y-3.858 E3.59896
G1 X-37.215 Y-6.513 E3.71597
G1 X-37.088 Y-7.204 E3.74664
G1 X-36.492 Y-9.785 E3.86227
G1 X-36.305 Y-10.459 E3.89281
G1 X-35.482 Y-12.978 E4.00849
G1 X-35.237 Y-13.628 E4.03882
G1 X-34.196 Y-16.063 E4.15442
G1 X-33.896 Y-16.687 E4.18464
G1 X-32.664 Y-18.986 E4.29851
G1 X-32.317 Y-19.571 E4.3282
G1 X-30.908 Y-21.729 E4.44071
G1 X-30.51 Y-22.285 E4.47056
G1 X-28.919 Y-24.313 E4.58308
G1 X-28.479 Y-24.826 E4.61258
G1 X-26.721 Y-26.709 E4.72504
G1 X-26.237 Y-27.185 E4.75467
G1 X-24.322 Y-28.911 E4.86721
G1 X-23.799 Y-29.343 E4.89683
G1 X-21.745 Y-30.896 E5.00924
G1 X-21.186 Y-31.282 E5.03889
G1 X-19.004 Y-32.653 E5.15139
G1 X-18.417 Y-32.987 E5.18087
G1 X-16.124 Y-34.167 E5.29344
G1 X-15.666 Y-34.385 E5.31559
G1 X-14.486 Y-34.899 E5.37177
G1 X-14.013 Y-35.087 E5.39399
G1 X-11.59 Y-35.961 E5.50644
G1 X-10.939 Y-36.164 E5.53621
G1 X-8.449 Y-36.825 E5.64867
G1 X-7.956 Y-36.939 E5.67076
G1 X-6.631 Y-37.201 E5.72972
G1 X-6.26 Y-37.266 E5.74616
G1 X-4.907 Y-37.467 E5.80587
G1 X-4.373 Y-37.527 E5.82933
G1 X-1.564 Y-37.75 E5.95234
G1 X-.874 Y-37.775 E5.98248
G1 X1.492 Y-37.755 E6.08577
G1 X2.159 Y-37.721 E6.11493
G1 X4.894 Y-37.465 E6.23484
G1 X5.599 Y-37.366 E6.26592
G1 X8.204 Y-36.882 E6.38158
G1 X8.885 Y-36.724 E6.4121
G1 X11.436 Y-36.011 E6.52773
G1 X12.099 Y-35.794 E6.55818
G1 X14.577 Y-34.858 E6.67382
G1 X15.214 Y-34.585 E6.70407
G1 X17.595 Y-33.437 E6.81946
G1 X18.204 Y-33.109 E6.84966
G1 X20.419 Y-31.79 E6.9622
G1 X20.981 Y-31.422 E6.99152
G1 X23.074 Y-29.92 E7.10398
G1 X23.614 Y-29.496 E7.13395
G1 X25.569 Y-27.817 E7.24645
G1 X26.06 Y-27.358 E7.27579
G1 X27.864 Y-25.519 E7.38825
G1 X28.319 Y-25.012 E7.41799
G1 X29.959 Y-23.022 E7.53056
G1 X30.368 Y-22.48 E7.5602
G1 X31.829 Y-20.358 E7.67267
G1 X32.188 Y-19.787 E7.70211
G1 X33.462 Y-17.548 E7.81457
G1 X33.703 Y-17.089 E7.8372
G1 X34.266 Y-15.928 E7.89352
G1 X34.4 Y-15.637 E7.90751
G1 X34.914 Y-14.457 E7.9637
G1 X35.107 Y-13.97 E7.98656
G1 X35.977 Y-11.544 E8.09907
G1 X36.177 Y-10.9 E8.12851
G1 X36.836 Y-8.409 E8.24099
G1 X36.951 Y-7.908 E8.26343
G1 X37.211 Y-6.58 E8.32251
G1 X37.297 Y-6.042 E8.34629
G1 X37.636 Y-3.325 E8.46582
G1 X37.691 Y-2.66 E8.49495
G1 X37.783 Y-.323 E8.59704
G1 X37.78 Y0.356 E8.62669
G1 X37.649 Y3.146 E8.74861
G1 X37.583 Y3.858 E8.77983
G1 X37.215 Y6.513 E8.89684
G1 X37.088 Y7.204 E8.92751
G1 X36.492 Y9.785 E9.04314
G1 X36.305 Y10.459 E9.07368
G1 X35.482 Y12.978 E9.18936
G1 X35.237 Y13.628 E9.21969
G1 X34.196 Y16.063 E9.33529
G1 X33.896 Y16.687 E9.36552
G1 X32.664 Y18.986 E9.47938
G1 X32.317 Y19.571 E9.50907
G1 X30.908 Y21.729 E9.62158
G1 X30.51 Y22.285 E9.65143
G1 X28.919 Y24.313 E9.76395
G1 X28.479 Y24.826 E9.79345
G1 X26.721 Y26.709 E9.90591
G1 X26.237 Y27.185 E9.93554
G1 X24.322 Y28.911 E10.04809
G1 X23.799 Y29.343 E10.0777
G1 X21.745 Y30.896 E10.19011
G1 X21.186 Y31.282 E10.21976
G1 X19.004 Y32.653 E10.33226
G1 X18.417 Y32.987 E10.36174
G0 X18.257 Y32.676
G1 X15.964 Y33.856 E10.47431
G1 X15.526 Y34.064 E10.49548
G1 X14.346 Y34.578 E10.55167
G1 X13.894 Y34.758 E10.57291
G1 X11.471 Y35.632 E10.68535
G1 X10.849 Y35.826 E10.71379
G1 X8.359 Y36.487 E10.82626
G1 X7.888 Y36.596 E10.84736
G1 X6.563 Y36.858 E10.90632
G1 X6.209 Y36.919 E10.922
G1 X4.856 Y37.12 E10.98172
G1 X4.346 Y37.178 E11.00412
G1 X1.537 Y37.401 E11.12713
G1 X0.877 Y37.425 E11.15596
G1 X-1.489 Y37.405 E11.25925
G1 X-2.126 Y37.372 E11.2871
G1 X-4.861 Y37.116 E11.40701
G1 X-5.535 Y37.022 E11.43672
G1 X-8.14 Y36.538 E11.55238
G1 X-8.791 Y36.387 E11.58156
G1 X-11.342 Y35.674 E11.69719
G1 X-11.975 Y35.467 E11.72626
G1 X-14.453 Y34.531 E11.84189
G1 X-15.062 Y34.269 E11.87083
G1 X-17.443 Y33.121 E11.98623
G1 X-18.025 Y32.808 E12.01507
G1 X-20.24 Y31.489 E12.12761
G1 X-20.777 Y31.138 E12.15562
G1 X-22.87 Y29.636 E12.26808
G1 X-23.386 Y29.231 E12.29671
G1 X-25.341 Y27.552 E12.40921
G1 X-25.81 Y27.113 E12.43725
G1 X-27.614 Y25.274 E12.54971
G1 X-28.049 Y24.79 E12.57812
G1 X-29.689 Y22.8 E12.69069
G1 X-30.08 Y22.281 E12.71906
G1 X-31.541 Y20.159 E12.83152
G1 X-31.883 Y19.613 E12.85965
G1 X-33.157 Y17.374 E12.9721
G1 X-33.388 Y16.936 E12.99372
G1 X-33.951 Y15.775 E13.05005
G1 X-34.079 Y15.497 E13.06341
G1 X-34.593 Y14.317 E13.11959
G1 X-34.777 Y13.852 E13.14142
G1 X-35.647 Y11.426 E13.25393
G1 X-35.839 Y10.811 E13.28206
G1 X-36.498 Y8.32 E13.39454
G1 X-36.608 Y7.841 E13.41599
G1 X-36.868 Y6.513 E13.47507
G1 X-36.95 Y5.998 E13.49783
G1 X-37.289 Y3.279 E13.61745
G1 X-37.341 Y2.644 E13.64526
G1 X-37.433 Y0.309 E13.74727
G1 X-37.431 Y-.34 E13.7756
G1 X-37.3 Y-3.13 E13.89753
G1 X-37.237 Y-3.81 E13.92734
G1 X-36.869 Y-6.465 E14.04435
G1 X-36.747 Y-7.125 E14.07365
G1 X-36.151 Y-9.706 E14.18929
G1 X-35.972 Y-10.35 E14.21847
G1 X-35.149 Y-12.869 E14.33415
G1 X-34.915 Y-13.49 E14.36312
G1 X-33.874 Y-15.925 E14.47872
G1 X-33.588 Y-16.521 E14.50758
G1 X-32.356 Y-18.82 E14.62145
G1 X-32.024 Y-19.38 E14.64986
G1 X-30.615 Y-21.538 E14.76237
G1 X-30.234 Y-22.069 E14.7909
G1 X-28.643 Y-24.097 E14.90342
G1 X-28.223 Y-24.587 E14.9316
G1 X-26.465 Y-26.47 E15.04405
G1 X-26.003 Y-26.925 E15.07236
G1 X-24.088 Y-28.651 E15.1849
G1 X-23.588 Y-29.063 E15.21318
G1 X-21.534 Y-30.616 E15.32559
G1 X-20.999 Y-30.986 E15.35399
G1 X-18.817 Y-32.357 E15.46649
G1 X-18.257 Y-32.676 E15.49462
G1 X-15.964 Y-33.856 E15.60719
G1 X-15.526 Y-34.064 E15.62836
G1 X-14.346 Y-34.578 E15.68455
G1 X-13.894 Y-34.758 E15.70579
G1 X-11.471 Y-35.632 E15.81823
G1 X-10.849 Y-35.826 E15.84667
G1 X-8.359 Y-36.487 E15.95914
G1 X-7.888 Y-36.596 E15.98024
G1 X-6.563 Y-36.858 E16.0392
G1 X-6.209 Y-36.919 E16.05488
G1 X-4.856 Y-37.12 E16.1146
G1 X-4.346 Y-37.178 E16.137
G1 X-1.537 Y-37.401 E16.26001
G1 X-.877 Y-37.425 E16.28884
G1 X1.489 Y-37.405 E16.39213
G1 X2.126 Y-37.372 E16.41998
G1 X4.861 Y-37.116 E16.53989
G1 X5.535 Y-37.022 E16.5696
G1 X8.14 Y-36.538 E16.68526
G1 X8.791 Y-36.387 E16.71444
G1 X11.342 Y-35.674 E16.83007
G1 X11.975 Y-35.467 E16.85914
G1 X14.453 Y-34.531 E16.97477
G1 X15.062 Y-34.269 E17.00371
G1 X17.443 Y-33.121 E17.11911
G1 X18.025 Y-32.808 E17.14795
G1 X20.24 Y-31.489 E17.26049
G1 X20.777 Y-31.138 E17.2885
G1 X22.87 Y-29.636 E17.40096
G1 X23.386 Y-29.231 E17.42959
G1 X25.341 Y-27.552 E17.54209
G1 X25.81 Y-27.113 E17.57013
G1 X27.614 Y-25.274 E17.68259
G1 X28.049 Y-24.79 E17.711
G1 X29.689 Y-22.8 E17.82357
G1 X30.08 Y-22.281 E17.85194
G1 X31.541 Y-20.159 E17.9644
G1 X31.883 Y-19.613 E17.99253
G1 X33.157 Y-17.374 E18.10498
G1 X33.388 Y-16.936 E18.1266
G1 X33.951 Y-15.775 E18.18293
G1 X34.079 Y-15.497 E18.19629
G1 X34.593 Y-14.317 E18.25247
G1 X34.777 Y-13.852 E18.2743
G1 X35.647 Y-11.426 E18.38681
G1 X35.839 Y-10.811 E18.41494
G1 X36.498 Y-8.32 E18.52742
G1 X36.608 Y-7.841 E18.54887
G1 X36.868 Y-6.513 E18.60795
G1 X36.95 Y-5.999 E18.63067
G1 X37.289 Y-3.282 E18.7502
G1 X37.341 Y-2.646 E18.77805
G1 X37.433 Y-.309 E18.88015
G1 X37.431 Y0.34 E18.90848
G1 X37.3 Y3.13 E19.03041
G1 X37.237 Y3.81 E19.06022
G1 X36.869 Y6.465 E19.17723
G1 X36.747 Y7.125 E19.20653
G1 X36.151 Y9.706 E19.32217
G1 X35.972 Y10.35 E19.35135
G1 X35.149 Y12.869 E19.46703
G1 X34.915 Y13.49 E19.496
G1 X33.874 Y15.925 E19.61161
G1 X33.588 Y16.521 E19.64046
G1 X32.356 Y18.82 E19.75433
G1 X32.024 Y19.38 E19.78275
G1 X30.615 Y21.538 E19.89525
G1 X30.234 Y22.069 E19.92378
G1 X28.643 Y24.097 E20.03631
G1 X28.223 Y24.587 E20.06448
G1 X26.465 Y26.47 E20.17694
G1 X26.003 Y26.925 E20.20524
G1 X24.088 Y28.651 E20.31778
G1 X23.588 Y29.063 E20.34607
G1 X21.534 Y30.616 E20.45848
G1 X20.999 Y30.986 E20.48687
G1 X18.817 Y32.357 E20.59937
G1 X18.257 Y32.676 E20.6275
G0 X18.097 Y32.365
G1 X15.804 Y33.545 E20.74008
G1 X15.386 Y33.743 E20.76027
G1 X14.206 Y34.257 E20.81645
G1 X13.776 Y34.428 E20.83665
G1 X11.353 Y35.302 E20.9491
G1 X10.759 Y35.488 E20.97627
G1 X8.269 Y36.149 E21.08873
G1 X7.82 Y36.253 E21.10885
G1 X6.495 Y36.515 E21.16781
G1 X6.157 Y36.573 E21.18279
G1 X4.804 Y36.774 E21.2425
G1 X4.318 Y36.829 E21.26385
G1 X1.509 Y37.052 E21.38686
G1 X0.88 Y37.075 E21.41433
G1 X-1.486 Y37.055 E21.51762
G1 X-2.094 Y37.024 E21.5442
G1 X-4.829 Y36.768 E21.66412
G1 X-5.471 Y36.678 E21.69241
G1 X-8.076 Y36.194 E21.80808
G1 X-8.696 Y36.05 E21.83587
G1 X-11.247 Y35.337 E21.95149
G1 X-11.851 Y35.139 E21.97924
G1 X-14.329 Y34.203 E22.09488
G1 X-14.91 Y33.954 E22.12247
G1 X-17.291 Y32.806 E22.23786
G1 X-17.846 Y32.508 E22.26536
G1 X-20.061 Y31.189 E22.3779
G1 X-20.573 Y30.853 E22.40463
G1 X-22.666 Y29.351 E22.51709
G1 X-23.158 Y28.965 E22.54439
G1 X-25.113 Y27.286 E22.65689
G1 X-25.56 Y26.868 E22.68361
G1 X-27.364 Y25.029 E22.79606
G1 X-27.779 Y24.567 E22.82317
G1 X-29.419 Y22.577 E22.93574
G1 X-29.792 Y22.083 E22.96276
G1 X-31.253 Y19.961 E23.07523
G1 X-31.579 Y19.44 E23.10206
G1 X-32.853 Y17.201 E23.21452
G1 X-33.073 Y16.784 E23.2351
G1 X-33.636 Y15.623 E23.29143
G1 X-33.758 Y15.357 E23.3042
G1 X-34.272 Y14.177 E23.36039
G1 X-34.448 Y13.734 E23.3812
G1 X-35.318 Y11.308 E23.4937
G1 X-35.5 Y10.721 E23.52053
G1 X-36.159 Y8.23 E23.63302
G1 X-36.264 Y7.774 E23.65344
G1 X-36.524 Y6.446 E23.71252
G1 X-36.603 Y5.955 E23.73423
G1 X-36.942 Y3.236 E23.85384
G1 X-36.991 Y2.63 E23.88038
G1 X-37.083 Y0.295 E23.98239
G1 X-37.081 Y-.324 E24.00941
G1 X-36.95 Y-3.114 E24.13134
G1 X-36.89 Y-3.762 E24.15975
G1 X-36.522 Y-6.417 E24.27676
G1 X-36.406 Y-7.046 E24.30468
G1 X-35.81 Y-9.627 E24.42032
G1 X-35.639 Y-10.241 E24.44814
G1 X-34.816 Y-12.76 E24.56382
G1 X-34.593 Y-13.352 E24.59144
G1 X-33.552 Y-15.787 E24.70704
G1 X-33.279 Y-16.356 E24.73459
G1 X-32.047 Y-18.655 E24.84846
G1 X-31.731 Y-19.189 E24.87554
G1 X-30.322 Y-21.347 E24.98805
G1 X-29.959 Y-21.853 E25.01524
G1 X-28.368 Y-23.881 E25.12776
G1 X-27.968 Y-24.348 E25.1546
G1 X-26.21 Y-26.231 E25.26706
G1 X-25.769 Y-26.665 E25.29407
G1 X-23.854 Y-28.391 E25.40661
G1 X-23.377 Y-28.784 E25.43359
G1 X-21.323 Y-30.337 E25.546
G1 X-20.813 Y-30.689 E25.57305
G1 X-18.631 Y-32.06 E25.68555
G1 X-18.097 Y-32.365 E25.71239
G1 X-15.804 Y-33.545 E25.82497
G1 X-15.386 Y-33.743 E25.84516
G1 X-14.206 Y-34.257 E25.90134
G1 X-13.776 Y-34.428 E25.92154
G1 X-11.353 Y-35.302 E26.03399
G1 X-10.759 Y-35.488 E26.06116
G1 X-8.269 Y-36.149 E26.17362
G1 X-7.82 Y-36.253 E26.19374
G1 X-6.495 Y-36.515 E26.25271
G1 X-6.157 Y-36.573 E26.26768
G1 X-4.804 Y-36.774 E26.32739
G1 X-4.318 Y-36.829 E26.34874
G1 X-1.509 Y-37.052 E26.47175
G1 X-.88 Y-37.075 E26.49923
G1 X1.486 Y-37.055 E26.60251
G1 X2.094 Y-37.024 E26.62909
G1 X4.829 Y-36.768 E26.74901
G1 X5.471 Y-36.678 E26.77731
G1 X8.076 Y-36.194 E26.89297
G1 X8.696 Y-36.05 E26.92076
G1 X11.247 Y-35.337 E27.03639
G1 X11.851 Y-35.139 E27.06413
G1 X14.329 Y-34.203 E27.17977
G1 X14.91 Y-33.954 E27.20736
G1 X17.291 Y-32.806 E27.32275
G1 X17.846 Y-32.508 E27.35025
G1 X20.061 Y-31.189 E27.46279
G1 X20.573 Y-30.853 E27.48952
G1 X22.666 Y-29.351 E27.60198
G1 X23.158 Y-28.965 E27.62928
G1 X25.113 Y-27.286 E27.74178
G1 X25.56 Y-26.868 E27.7685
G1 X27.364 Y-25.029 E27.88095
G1 X27.779 Y-24.567 E27.90806
G1 X29.419 Y-22.577 E28.02063
G1 X29.792 Y-22.083 E28.04766
G1 X31.253 Y-19.961 E28.16012
G1 X31.579 Y-19.44 E28.18695
G1 X32.853 Y-17.201 E28.29941
G1 X33.073 Y-16.784 E28.31999
G1 X33.636 Y-15.623 E28.37632
G1 X33.758 Y-15.357 E28.38909
G1 X34.272 Y-14.177 E28.44528
G1 X34.448 Y-13.734 E28.46609
G1 X35.318 Y-11.308 E28.57859
G1 X35.5 Y-10.721 E28.60542
G1 X36.159 Y-8.23 E28.71791
G1 X36.264 Y-7.774 E28.73833
G1 X36.524 Y-6.446 E28.79741
G1 X36.603 Y-5.955 E28.81912
G1 X36.942 Y-3.238 E28.93864
G1 X36.991 Y-2.632 E28.96518
G1 X37.083 Y-.295 E29.06728
G1 X37.081 Y0.324 E29.0943
G1 X36.95 Y3.114 E29.21623
G1 X36.89 Y3.762 E29.24464
G1 X36.522 Y6.417 E29.36165
G1 X36.406 Y7.046 E29.38957
G1 X35.81 Y9.627 E29.50521
G1 X35.639 Y10.241 E29.53303
G1 X34.816 Y12.76 E29.64872
G1 X34.593 Y13.352 E29.67633
G1 X33.552 Y15.787 E29.79194
G1 X33.279 Y16.356 E29.81949
G1 X32.047 Y18.655 E29.93335
G1 X31.731 Y19.189 E29.96043
G1 X30.322 Y21.347 E30.07294
G1 X29.959 Y21.853 E30.10013
G1 X28.368 Y23.881 E30.21265
G1 X27.968 Y24.348 E30.23949
G1 X26.21 Y26.231 E30.35195
G1 X25.769 Y26.665 E30.37896
G1 X23.854 Y28.391 E30.4915
G1 X23.377 Y28.784 E30.51848
G1 X21.323 Y30.337 E30.63089
G1 X20.813 Y30.689 E30.65794
G1 X18.631 Y32.06 E30.77044
G1 X18.097 Y32.365 E30.79728
G0 X17.937 Y32.054
G1 X15.644 Y33.234 E30.90986
G1 X15.247 Y33.422 E30.92903
G1 X14.067 Y33.936 E30.98522
G1 X13.657 Y34.099 E31.00448
G1 X11.234 Y34.973 E31.11692
G1 X10.669 Y35.15 E31.14277
G1 X8.179 Y35.811 E31.25523
G1 X7.752 Y35.909 E31.27436
G1 X6.427 Y36.171 E31.33332
G1 X6.106 Y36.227 E31.34755
G1 X4.753 Y36.428 E31.40726
G1 X4.29 Y36.481 E31.4276
G1 X1.481 Y36.704 E31.55061
G1 X0.883 Y36.725 E31.57673
G1 X-1.483 Y36.705 E31.68002
G1 X-2.061 Y36.675 E31.70529
G1 X-4.796 Y36.419 E31.8252
G1 X-5.407 Y36.334 E31.85213
G1 X-8.012 Y35.85 E31.9678
G1 X-8.602 Y35.713 E31.99424
G1 X-11.153 Y35 E32.10987
G1 X-11.728 Y34.812 E32.13627
G1 X-14.206 Y33.876 E32.25191
G1 X-14.758 Y33.639 E32.27813
G1 X-17.139 Y32.491 E32.39352
G1 X-17.667 Y32.207 E32.4197
G1 X-19.882 Y30.888 E32.53223
G1 X-20.369 Y30.569 E32.55765
G1 X-22.462 Y29.067 E32.67011
G1 X-22.93 Y28.7 E32.69607
G1 X-24.885 Y27.021 E32.80857
G1 X-25.31 Y26.622 E32.83402
G1 X-27.114 Y24.783 E32.94647
G1 X-27.509 Y24.345 E32.97222
G1 X-29.149 Y22.355 E33.08479
G1 X-29.503 Y21.884 E33.11051
G1 X-30.964 Y19.762 E33.22298
G1 X-31.275 Y19.267 E33.2485
G1 X-32.549 Y17.028 E33.36095
G1 X-32.758 Y16.631 E33.38054
G1 X-33.321 Y15.47 E33.43687
G1 X-33.437 Y15.218 E33.44898
G1 X-33.951 Y14.038 E33.50516
G1 X-34.118 Y13.616 E33.52498
G1 X-34.988 Y11.19 E33.63748
G1 X-35.162 Y10.632 E33.663
G1 X-35.821 Y8.141 E33.77548
G1 X-35.921 Y7.706 E33.79497
G1 X-36.181 Y6.378 E33.85404
G1 X-36.256 Y5.911 E33.87469
